X: 10054
T: LAYER'S REEL
C: Bob McQuillen 5 May 93
B: Bob's Note Book 10 #54
%R: reel
Z: 2020 John Chambers <jc:trillian.mit.edu>
M: C
L: 1/8
K: Em
D \
| EFGA B2BG | EGBd BGED | EFGA B2BG | EGBG DFAF |\
| EFGA B2GA | Bedc B2ef | g2ge fdBd | edBA GEE :|
|: D \
| GBdB eBdB | G2BG AGED | GBdB eBde | g2ag fdBd |\
| e2eg edBd | eged B2GE | DEFE FGAB | GEFD E3  :|
%%begintext align
%% Chris Layer is a great flute
%% player from up in the Champlain Valley area, and
%% every once in a while he gets down this way so
%% we can all enjoy his music. Hope to see you soon,
%% Chris - we'll play a few tunes together -
%%endtext

%%sep 1 1 500

%%sep 1 1 500

